map_marker_monochrome/openmoji_hamburger.svg

<svg xmlns="http://www.w3.org/2000/svg" width="24" height="24" viewBox="0 0 24 24"> <g transform="scale(0.333333333)">  <g id="line">
    <path fill="none" stroke="#000" stroke-linecap="round" stroke-linejoin="round" stroke-miterlimit="10" stroke-width="2" d="m32.88 49.3h-16.88c-1.104 0-2-0.8955-2-2v-6.75c0-1.104 0.8955-2 2-2h40c1.104 0 2 0.8955 2 2v6.75c0 1.104-0.8955 2-2 2h-16.79z"/>
    <path fill="none" stroke="#000" stroke-linecap="round" stroke-linejoin="round" stroke-miterlimit="10" stroke-width="2" d="m32.88 49.47h-17.88c-1.104 0-2 0.7013-2 1.566v4.699c0 0.865 0.8955 1.566 2 1.566h42c1.104 0 2-0.7013 2-1.566v-4.699c0-0.865-0.8955-1.566-2-1.566h-17.79z"/>
    <path fill="none" stroke="#000" stroke-linecap="round" stroke-linejoin="round" stroke-miterlimit="10" stroke-width="2" d="m59 27.93c0 0.7243-0.8955 1.312-2 1.312h-42c-1.104 0-2-0.5872-2-1.312 1.484-7.465 11.21-13.23 23-13.23s21.52 5.765 23 13.23z"/>
    <path fill="none" stroke="#000" stroke-linecap="round" stroke-linejoin="round" stroke-miterlimit="10" stroke-width="2" d="m43.24 38.93h-14.48l7.242 7.164z"/>
    <path fill="none" stroke="#000" stroke-linecap="round" stroke-linejoin="round" stroke-miterlimit="10" stroke-width="2" d="m59.19 34.1c-0.7619 0.3964-1.358 0.8199-2.487 1.002-1.368 0.3587-3.178 0.2195-4.602 0-1.928-0.3112-2.302-1.326-4.602-1.708-1.424-0.2195-3.178-0.2195-4.602 0-2.299 0.3815-2.673 1.396-4.602 1.708-1.424 0.2195-3.178 0.2195-4.602 0-1.928-0.3112-2.302-1.326-4.602-1.708-1.424-0.2195-3.178-0.2195-4.602 0-2.299 0.3815-2.673 1.396-4.602 1.708-1.424 0.2195-3.178 0.2195-4.602 0-1.129-0.1823-1.725-0.6058-2.487-1.002" paint-order="stroke fill markers"/>
  </g></g></svg>

<svg xmlns="http://www.w3.org/2000/svg" width="24" height="24" viewBox="0 0 24 24"> <g transform="translate(0.0 0.9400717862486268) scale(0.4959497642564789)">
  
  <g
     id="line"
     transform="translate(-11.798,-13.7)">
    <path
       fill="none"
       stroke="#000"
       stroke-linecap="round"
       stroke-linejoin="round"
       stroke-miterlimit="10"
       stroke-width="2"
       d="M 32.88,49.3 H 16 c -1.104,0 -2,-0.8955 -2,-2 v -6.75 c 0,-1.104 0.8955,-2 2,-2 h 40 c 1.104,0 2,0.8955 2,2 v 6.75 c 0,1.104 -0.8955,2 -2,2 H 39.21 Z"
       id="path2" />
    <path
       fill="none"
       stroke="#000"
       stroke-linecap="round"
       stroke-linejoin="round"
       stroke-miterlimit="10"
       stroke-width="2"
       d="M 32.88,49.47 H 15 c -1.104,0 -2,0.7013 -2,1.566 v 4.699 c 0,0.865 0.8955,1.566 2,1.566 h 42 c 1.104,0 2,-0.7013 2,-1.566 V 51.036 C 59,50.171 58.1045,49.47 57,49.47 H 39.21 Z"
       id="path4" />
    <path
       fill="none"
       stroke="#000"
       stroke-linecap="round"
       stroke-linejoin="round"
       stroke-miterlimit="10"
       stroke-width="2"
       d="m 59,27.93 c 0,0.7243 -0.8955,1.312 -2,1.312 H 15 c -1.104,0 -2,-0.5872 -2,-1.312 1.484,-7.465 11.21,-13.23 23,-13.23 11.79,0 21.52,5.765 23,13.23 z"
       id="path6" />
    <path
       fill="none"
       stroke="#000"
       stroke-linecap="round"
       stroke-linejoin="round"
       stroke-miterlimit="10"
       stroke-width="2"
       d="M 43.24,38.93 H 28.76 l 7.242,7.164 z"
       id="path8" />
    <path
       fill="none"
       stroke="#000"
       stroke-linecap="round"
       stroke-linejoin="round"
       stroke-miterlimit="10"
       stroke-width="2"
       d="m 59.19,34.1 c -0.7619,0.3964 -1.358,0.8199 -2.487,1.002 -1.368,0.3587 -3.178,0.2195 -4.602,0 -1.928,-0.3112 -2.302,-1.326 -4.602,-1.708 -1.424,-0.2195 -3.178,-0.2195 -4.602,0 -2.299,0.3815 -2.673,1.396 -4.602,1.708 -1.424,0.2195 -3.178,0.2195 -4.602,0 -1.928,-0.3112 -2.302,-1.326 -4.602,-1.708 -1.424,-0.2195 -3.178,-0.2195 -4.602,0 -2.299,0.3815 -2.673,1.396 -4.602,1.708 -1.424,0.2195 -3.178,0.2195 -4.602,0 C 14.156,34.9197 13.56,34.4962 12.798,34.1"
       paint-order="stroke fill markers"
       id="path10" />
  </g>
</g></svg>
